X: 25298
T: Man Of The House, The
R: reel
M: 4/4
K: Eminor
E2BE GABG|E2BE AFDF|E2BE GAB^c|dBAc BEED|
E2BE GABG|E2BE AFDF|E2BE GAB^c|dBAc BEE2||
efge fgaf|gfed edBA|efge fgaf|gfed Bee2|
efge fgaf|gfed efga|bgaf gfed|edBA GEFD||

